X: 15
T:Poolside Polka
M:2/4
L:1/16
C:Cliff Stapleton
R:Polka
K:G
B2d2 g2ba|g2fe d4|egfe d2B2|cBcd A4|B2d2 g2ba|g2fe d4|egfe dfab|1a2g2 g4
:|2a2g2 B2|:c3c e2dc|B6 d2|defg agfe|d6 B2|c3c e2dc|B6 d2|defg agfa|1g2b
2g2:|2g2b2g2 Bc|:d2d2 dBdg|d2d2 dBdg|edce dcBd|cBAB cABc|d2d2 dBdg|d2d2
dBdg|edce dcBd|cBAB G4:|
